X:1
T:Title
%%score ( 1 2 ) { 3 | 4 }
L:1/8
Q:1/4=113
M:3/4
K:G
V:1 treble nm="Grand Piano, Soprano"
V:2 treble 
V:3 bass nm="Choir Pad, Shepham, CM"
V:4 bass 
V:1
 E2 G4 | F2 E4 | [^DF]2 [EG]2 [FA]2 | [EG]2 [^DF]4 | [^DF]2 [EG]2 [FA]2 | [GB]2 [EA]2 [DG]2 | %6
w: By~Thomas~Sanders~Dupuis~(1730\-1796) *||||||
 [DF]2 [DG]4 | [GB]2 [GB]2 [Ac][GB] | [FA][EG] [FA]2 [GB][FA] | [EG][^DF] [EG]>[FA] [GB]2 | %10
w: ||||
 [FA][EG] [EG]2 [^DF]2 | .B2 z2 .B2 | [GB][EG] [CF]2 [B,E]2 | [B,^D]2 [B,E]4- | [B,E]4 z2 |] %15
w: |||||
V:2
 x6 | x6 | x6 | x6 | x6 | x6 | x6 | x6 | x6 | x6 | x6 | ^D-[DA] [EG]>[FA] G-[Ge] | x6 | x6 | x6 |] %15
V:3
 E,2 G,4 | F,2 E,4 | B,2 B,4 | B,2 B,4 | B,2 B,2[K:treble] D2 | D2 C2 B,2 | A,2[K:bass] B,4 | %7
 E,2 E,4 | E,2 B,,4 | B,,2 E,4 | A,,2 B,,4 | B,2 B,4 | B,2 A,2 G,2 | F,2 G,4- | G,4 z2 |] %15
V:4
 z6 | z6 | B,,2 E,2 ^D,2 | E,2 B,,4 | B,,2 E,2 D,2 | G,2 C,2 D,2 | D,2 G,,4 | z6 | z6 | z6 | z6 | %11
 B,,2 E,4 | E,2 A,,2 B,,2 | B,,2 E,4- | E,4 z2 |] %15

